X: 901
T: Göz Açtım Gördüm
C: Ömer Dilek
O: Turkey
F: http://compmusic.upf.edu/node/140
N: saba--sarki--aksak--goz_actim--omer_dilek
N: makam= saba
N: form= sarki
N: usul= aksak = 9/8
M: 9/8
L: 1/16
K: C _2/4B _3/4d  
Q: 1/4=168
%%MIDI tuningsystem comma53
c2d2 c2B2 c2d2 c4 B2 | c2 d2c2 B2c2 d2c4B2  | \
w:  ARANAĞME  |   | 
c2d2 e2f2 g2f2 e2d2 c2 | 
w:   | 
c2 d2c2 B2A2 B2c6  | d8 d4 c2B2 A2 | \
w:   |   | 
c8c4B2 A2G2  | B8 B4 A2G2 ^F2 | 
w:   |   | 
G2 A2B2 c2B2 d2c6  | d8 d4 c2B2 A2 | \
w:   |   | 
c8c4B2 A2G2  | G2A2 B2c2 d2e2 d2c2 B2 | 
w:   |   | 
c2 B2B2 A2A8-A2  | A2A4B2 c8 z2 | c2 d2c2 B2c8z2  | \
w:   |  Göz_ aç *  tım   |  gör *  *  *  düm   | 
z4 e2f2 e2d2 c2B2 d2 | 
w:  gü ze lim  *  *  *  se  | 
c8B2 ABA6  | A2A4B2 c8 z2 | c2 d2c2 B2c8z2  | \
w:  ni   SAZ  |  Göz_ aç *  tım   |  gör *  *  *  düm   | 
z4 e2f2 e2d2 c2B2 d2 | 
w:  gü ze lim  *  *  *  se  | 
c8B2 ABc6  | z4 c2d2 d2d6 z2 | c2 d2e2 f2g2 f2e2 d2c2  | \
w:  ni   SAZ  |  Ni ce  su lar   |  iç *  *  *  tim   | 
c2d2 c2B2 B2A6 B2 | 
w:  o luk *  *  la rın  | 
B8B2 AcB6  | z4 c2d2 d2d6 z2 | c2 d2e2 f2g2 f2e2 d2c2  | \
w:  dan   SAZ  |  Ni ce  su lar   |  iç *  *  *  tim   | 
c2d2 c2B2 B2A6 B2 | 
w:  o luk *  *  la rın  | 
A8e2 c=de6  | z4 c2=d2 e8 z2 | g2 e2z4z4z4z2  | \
w:  dan   SAZ  |  Ve re mem   |  se ni   | 
z4 g2a2 g2f2 e2=d2 f2 | 
w:  ya ban_ el *  *  *  le  | 
e8e2 c=de6  | z4 c2=d2 e8 z2 | g2 e2z4z4z4z2  | \
w:  re   SAZ  |  Ve re mem   |  se ni   | 
z4 f2e2 d2c2 B4 d2 | 
w:  ya ban_ el *  *  le  | 
c8B2 ABc6  | c4 d4 d2d8 | c2 d2e2 f2g2 f2e2 d2c2  | \
w:  re   SAZ  |  Sen siz  ya şan  |  maz   | 
z4 c2d2 c4 B4 A2 | 
w:  ca nım_ İs tan  | 
B8B2 AcB6  | c4 d4 d2d8 | c2 d2e2 f2g2 f2e2 d2c2  | \
w:  bul   SAZ  |  Sen siz  ya şan  |  maz   | 
z4 c2d2 c4 B4 A2 | 
w:  ca nım_ İs tan  | 
A8z4z4z2  | c2d2 c2B2 c2d2 c4 B2 | c2 d2c2 B2c2 d2c4B2  | \
w:  bul    |  ARANAĞME  |   | 
c2d2 e2f2 g2f2 e2d2 c2 | 
w:   | 
c2 d2c2 B2A2 B2c6  | d8 d4 c2B2 A2 | \
w:   |   | 
c8c4B2 A2G2  | B8 B4 A2G2 ^F2 | 
w:   |   | 
G2 A2B2 c2B2 d2c6  | d8 d4 c2B2 A2 | \
w:   |   | 
c8c4B2 A2G2  | G2A2 B2c2 d2e2 d2c2 B2 | 
w:   |   | 
c2 B2B2 A2A8-A2  | A2A4B2 c4 c4 z2 | \
w:   |  O  mas *  ma vi   | 
c2 d2c2 B2c8z2  | z4 e2f2 e2d2 c2B2 d2 | 
w:  Bo ğaz   |  u za nır  *  *  *  gi  | 
c8B2 ABA6  | A2A4B2 c4 c4 z2 | c2 d2c2 B2c8z2  | \
w:  der   SAZ  |  O  mas *  ma vi   |  Bo ğaz   | 
z4 e2f2 e2d2 c2B2 d2 | 
w:  u za nır  *  *  *  gi  | 
c8B2 ABc6  | c2d6 d8 z2 | c2 d2e2 f2g2 f2e2 d2c2  | \
w:  der   SAZ  |  Da lar   |  gi der *  *  sin   | 
c2d2 c2B2 B2A6 B2 | 
w:  ma *  vi *  lik *  le  | 
B8B2 AcB6  | c2d6 d8 z2 | c2 d2e2 f2g2 f2e2 d2c2  | \
w:  re   SAZ  |  Da lar   |  gi der *  *  sin   | 
c2d2 c2B2 B2A6 B2 | 
w:  ma *  vi *  lik *  le  | 
A8e2 c=de6  | c2=d4e2 e8 z2 | z2 g4 e2e4z4z2  | \
w:  re   SAZ  |  O  yem ye şil   |  dağ la rı   | 
g2a2 g2f2 e2=d6 f2 | 
w:  ba yır *  *  la rıy  | 
e8e2 c=de6  | c2=d4e2 e8 z2 | z2 g4 e2e4z4z2  | \
w:  la   SAZ  |  O  yem ye şil   |  dağ la rı   | 
f2e2 d2c2 B2B6 d2 | 
w:  ba yır *  *  la rıy  | 
c8B2 ABc6  | z4 c2d2 d8 z2 | c2 d2e2 f2g2 f2e2 d2c2  | \
w:  la   SAZ  |  Ca na  can   |  ka tar *  *  sın   | 
z4 c2d2 c4 B4 A2 | 
w:  a ziz_ İs tan  | 
B8B2 AcB6  | z4 c2d2 d8 z2 | c2 d2e2 f2g2 f2e2 d2c2  | \
w:  bul   SAZ  |  Ca na  can   |  ka tar *  *  sın   | 
z4 c2d2 c4 B4 A2 | 
w:  a ziz_ İs tan  | 
A8z4z4z2  | |


